X:1
T:Vivre ne puis
T:Vivre ne puis
T:Claudin de Sermisy
C:Claudin de Sermisy
%%score [ 1 [ 2 3 ] 4 ]
L:1/8
Q:1/4=120
M:2/2
K:C
V:1 treble nm="Soprano" snm="S"
V:2 treble-8 nm="Tenor 1" snm="T 1"
V:3 treble-8 nm="Tenor 2" snm="T 2"
V:4 bass nm="Bass" snm="B"
V:1
 A8 | c4 c4 | B4 z2 B2 | B2 B2 c2 c2 | dcBA B2 c2 | B2 A4 ^G2 | A4 z2 A2- | A2 G2 F4 | E4 z2 G2 | %9
w: Vi-|vre ne|puis con-|tent sans sa pre-|sen- * * * * ce,|pre- sen- *|ce, mou-|* rir m'est|doux, si|
 A2 A2 c3 B | A2 G4 ^F2 | G8 | z2 c2 c2 B2 | c2 e2 e2 d2- | d2 c4 B2 | c4 z2 A2 | c2 B3 A A2- | %17
w: je n'a- vois _|_ _ l'es-|poir,|de prompt re-|tour et de loy-|* al de-|voir, de|mon a- * *|
 A2 G2 AGAB | c2 BA B2 c2 | c2 c2 d2 e2 | ABcA BG c2- | cB A4 ^G2 | cB A4 ^G2 | c2 B3 A A2- | %24
w: * * mour _ _ _|_ _ _ lui en|fait cog- nois- san-||||mon a- * *|
 A2 G2 AGAB | c2 BA B2 c2 | c2 c2 d2 e2 | ABcA BG c2- | cB A4 ^G2 | A8 |] %30
w: * * mour _ _ _|_ _ _ _ luy|en fait cog- nois-|san- * * * * * *||ce.|
V:2
 e8 | a4 g4 | g4 z2 g2 | g2 g2 e2 a2 | a2 g4 g2 | f4 e4 | z2 c2 d4 | e4 A2 A2 | cdef g2 g2 | %9
w: Vi-|vre ne|puis con-|tent sans sa pre-|sen- ce, pre-|sen- ce,|mou- rir|m'est doux, si|je _ _ _ _ n'a-|
 c4 g3 f | e4 d4 | z2 e2 e2 d2 | e3 f g4 | g4 c2 d2 | e2 f2 g3 f | e8 | e4 e2 d2 | e4 z2 c2 | %18
w: vois l'es- *|* poir,|de prompt re-|tour _ _|et de loy-|al de- voir, _|_|de mon a-|mour luy|
 c2 c2 d2 e2 | A2 f3 e g2 | f2 e2 g4 | c2 d2 e4 | e8 | e4 e2 d2 | e4 z2 c2 | c2 c2 d2 e2 | %26
w: en fait cog- nois-|san- ce, fait cog-|nois- san- ce,|cog- nois- san-|ce,|de mon a-|mour luy|en fait cog- nois-|
 A2 f3 e g2 | f2 e2 a4 | c2 d2 e4 | e8 |] %30
w: san- ce, fait cog-|nois- san- ce,|cog- nois- san-|ce.|
V:3
 A8 | e4 e4 | d2 d2 d2 d2 | e2 d2 c2 f2- | fedc d2 e2 | d3 c B4 | A4 z2 A2 | B2 c2 d4 | %8
w: Vi-|vre ne|puis con- tent sans|sa pre- sen- *|* * * * ce, sans|sa pre- sen-|ce, mou-|rir m'est doux,|
 z2 c2 d2 e2 | f2 f2 e3 d | c2 B2 A4 | G2 c2 c2 B2 | c4 d4 | e2 ed ef g2 | e2 dc d2 d2 | c8 | %16
w: mou- rir m'est|doux, si je n'a-|vois _ l'es-|poir, de prompt re-|tour et|de loy- * * * *|al _ _ _ de-|voir,|
 z4 z2 A2 | c2 B2 ABcd | edef g4 | c4 z2 c2 | c2 c2 d2 e2 | A4 B4 | A4 z4 | z4 z2 A2 | c2 B2 ABcd | %25
w: de|mon a- mour _ _ _|_ _ _ _ _|* luy|en fait cog- nois-|san- *|ce,|de|mon a- mour _ _ _|
 edef g4 | c4 z2 c2 | c2 c2 d2 e2 | A4 B4 | A8 |] %30
w: _ _ _ _ _|* luy|en fait cog- nois-|san- *|ce.|
V:4
 A,8 | A,4 C4 | G,4 z2 G,2 | G,2 G,2 A,2 A,2 | D,2 G,4 C,2 | D,2 D,2 E,4 | A,,2 A,2 G,2 F,2 | %7
w: Vi-|vre ne|puis con-|tent sans sa pre-|sen- ce, sans|sa pre- sen-|ce, mou- rir m'est|
 E,4 D,4 | A,2 A,2 G,4 | F,3 E, C,4- | C,4 D,4 | E,2 C,2 G,4 | z4 G,4 | C6 B,2 | C2 A,2 G,4 | %15
w: doux, si|je n'a- vois|l'es- * poir|_ de|prompt re- tour|et|de loy-|al de- voir,|
 z2 A,2 C3 B, | A,2 G,2 A,2 F,2 | E,4 z2 A,2 | A,2 A,2 G,2 C,2 | F,3 E, D,2 C,2 | %20
w: de mon _|_ a- mour, a-|mour, de|mon a- mour luy|en _ _ fait|
 F,2 A,2 G,2 F,E, | F,4 E,4 | z2 A,2 C3 B, | A,2 G,2 A,2 F,2 | E,4 z2 A,2 | A,2 A,2 G,2 C,2 | %26
w: cog- nois- san- * *|* ce,|de mon _|_ a- mour, a-|mour, de|mon a- mour, luy|
 F,3 E, D,2 C,2 | F,2 A,2 G,2 F,E, | F,4 E,4 | A,8 |] %30
w: en _ _ fait|cog- nois- san- * *||ce.|

